X:1
T:Title
%%score { 1 | ( 2 3 ) }
L:1/8
Q:1/4=100
M:4/4
K:G
V:1 treble nm="Grand Piano"
V:2 bass 
V:3 bass 
V:1
 [B,G]2 [B,D][B,D] [DB]2 [B,DG][B,DG] | [CFA]2 [B,DG][A,DF] [B,DG]2 [G,B,D]2 | %2
w: Wm.~J.~Kirkpatrick * * * * *||
 [G,CE]2 [G,EG][G,CE] [G,B,D]2 [B,G][DB] | d2 d>B A4 | [B,DG]2 [B,D][B,D] B2 GG | [Fc]2 BA B2 G2 | %6
w: ||||
 [EA]2 [EG]E D2 GB | [Fd]2 [CDF][CDA] [B,DG]4 | [FA]2 [FA]>[FA] [FA][Fd] z [Fd] | %9
w: |||
 [A^c]B[A,FA][A,EG] [A,DF] .[DFA]3 | [DGB]2 [DGB][DGB] [DFA]2 [DFA][DFA] | %11
w: ||
[M:9/8] [E^c]2 [GB] [Gc] [Fd]2- [Fd]3 |[M:4/4] [B,DG]2 [B,D][B,D] B2 GG | [Fc]2 BA B2 G2 | %14
w: |||
 [EA]2 [EG]E D2 GB |[M:8/4] [Fd]2 [CDF][CDA] [B,DG]4 z8 |] %16
w: ||
V:2
 [G,,D,]2 [G,,G,][G,,G,] G,2 G,G, | D,2 D,D, G,,2 G,,2 | C,2 C,C, G,,2 [G,,D,][G,,G,] | %3
 [G,B,D]2 [G,B,D]>[G,D] [D,F,D]4 | G,,2 [G,,G,][G,,G,][K:treble] [G,DG]2 [G,B,D][K:bass][G,B,D] | %5
 [D,A,]2 [D,G,D][D,F,D] [G,D]2 [G,B,D]2 | [C,C]2 [C,G,][C,G,C] [D,G,B,]2 [D,B,D][D,G,D] | %7
 [D,A,]2 D,D, G,,4 | [D,D]2 [D,D]>[D,D] [D,D][D,A,] z [D,A,] | [D,A,]2 z2 z4 | G,2 G,G, D,2 D,D, | %11
[M:9/8] z3 z A,2 z3 |[M:4/4] G,,2 [G,,G,][G,,G,][K:treble] [G,DG]2 [G,B,D][K:bass][G,B,D] | %13
 [D,A,]2 [D,G,D][D,F,D] [G,D]2 [G,B,D]2 | [C,C]2 [C,G,][C,G,C] [D,G,B,]2 [D,B,D][D,G,D] | %15
[M:8/4] [D,A,]2 D,D, G,,4 z8 |] %16
V:3
 x8 | x8 | x8 | x8 | x4[K:treble] x3[K:bass] x | x8 | x8 | x8 | x8 | z GD,D, D, .D,3 | x8 | %11
[M:9/8] A,2 [A,,A,] [A,,A,] D,2- [D,C]3 |[M:4/4] x4[K:treble] x3[K:bass] x | x8 | x8 | %15
[M:8/4] x16 |] %16

